icons/BoxWithTape.svg

<svg width="24" height="24" viewBox="0 0 24 24" fill="none" xmlns="http://www.w3.org/2000/svg">
<path fill-rule="evenodd" clip-rule="evenodd" d="M10,3.25h4h5c0.9665,0 1.75,0.7835 1.75,1.75v14c0,0.9665 -0.7835,1.75 -1.75,1.75h-14c-0.9665,0 -1.75,-0.7835 -1.75,-1.75v-14c0,-0.9665 0.7835,-1.75 1.75,-1.75zM9.25,4.75h-4.25c-0.13807,0 -0.25,0.11193 -0.25,0.25v14c0,0.1381 0.11193,0.25 0.25,0.25h14c0.1381,0 0.25,-0.1119 0.25,-0.25v-14c0,-0.13807 -0.1119,-0.25 -0.25,-0.25h-4.25v5.25c0,0.2599 -0.1346,0.5013 -0.3557,0.638c-0.2211,0.1366 -0.4972,0.1491 -0.7297,0.0328l-1.6646,-0.83227l-1.6646,0.83227c-0.2325,0.1163 -0.50859,0.1038 -0.7297,-0.0328c-0.22111,-0.1367 -0.3557,-0.3781 -0.3557,-0.638zM13.25,4.75h-2.5v4.03647l0.9146,-0.45729c0.2111,-0.10557 0.4597,-0.10557 0.6708,0l0.9146,0.45729z" fill="#002B51"/>
</svg>

<svg width="24" height="24" viewBox="0 0 24 24" fill="none" xmlns="http://www.w3.org/2000/svg">
<path fill-rule="evenodd" clip-rule="evenodd" d="M5 3.25C4.0335 3.25 3.25 4.0335 3.25 5V19C3.25 19.9665 4.0335 20.75 5 20.75H19C19.9665 20.75 20.75 19.9665 20.75 19V5C20.75 4.0335 19.9665 3.25 19 3.25H14H10H5ZM9.25 4.75H5C4.86193 4.75 4.75 4.86193 4.75 5V19C4.75 19.1381 4.86193 19.25 5 19.25H19C19.1381 19.25 19.25 19.1381 19.25 19V5C19.25 4.86193 19.1381 4.75 19 4.75H14.75V10C14.75 10.2599 14.6154 10.5013 14.3943 10.638C14.1732 10.7746 13.8971 10.7871 13.6646 10.6708L12 9.83853L10.3354 10.6708C10.1029 10.7871 9.82681 10.7746 9.6057 10.638C9.38459 10.5013 9.25 10.2599 9.25 10V4.75ZM13.25 4.75H10.75V8.78647L11.6646 8.32918C11.8757 8.22361 12.1243 8.22361 12.3354 8.32918L13.25 8.78647V4.75Z" fill="#002B51"/>
</svg>
